X:525
T: Yijiuerwunian
N: C1943
O: China,Henan Xinxian
S: IV, 124]
R: Xiaodiao, Daliuwang diao]
M: 2/4
L: 1/16
K: C
A3cA2c2 | d2d4cA | GAGEG4 |
G2GGAcE2 | GAGEG4 |
AcE2G4 | A2e2d4 | dedcd4 | G2A2G4 |
G3EG2A2 | G2E2D4 | EDC2D4 |
d4c4 | d4c4 | d3cd2c2 | A2d2c4 |
G3EG2A2 | G2E2D4 | EDC2D4

@@@ Tune index: 7080
